fs/document_queue_add_24_filled.svg

<svg viewBox="0 0 24 24" fill="none" xmlns="http://www.w3.org/2000/svg" height="1em" width="1em">
  <path d="M5 4C5 2.89543 5.89543 2 7 2H12.5001L12.5 6.74998C12.5 7.71649 13.2835 8.50002 14.25 8.50002H19V11.1739C18.5185 11.0602 18.0163 11 17.5 11C13.9101 11 11 13.9101 11 17.5C11 18.0163 11.0602 18.5185 11.1739 19H7C5.89543 19 5 18.1046 5 17V4ZM8 5.75C8 6.16421 8.33579 6.5 8.75 6.5H10.25C10.6642 6.5 11 6.16421 11 5.75C11 5.33579 10.6642 5 10.25 5H8.75C8.33579 5 8 5.33579 8 5.75ZM8.75 8C8.33579 8 8 8.33579 8 8.75C8 9.16421 8.33579 9.5 8.75 9.5H10.25C10.6642 9.5 11 9.16421 11 8.75C11 8.33579 10.6642 8 10.25 8H8.75ZM8 11.75C8 12.1642 8.33579 12.5 8.75 12.5H10.25C10.6642 12.5 11 12.1642 11 11.75C11 11.3358 10.6642 11 10.25 11H8.75C8.33579 11 8 11.3358 8 11.75ZM12.8096 22C12.3832 21.5557 12.0194 21.051 11.7322 20.5H6.5C4.84315 20.5 3.5 19.1569 3.5 17.5V15.75C3.5 15.3358 3.16421 15 2.75 15C2.33579 15 2 15.3358 2 15.75V17.5C2 19.9853 4.01472 22 6.5 22H12.8096ZM18.9995 7.00002L14.0001 2.00159L14 6.75001C14 6.88808 14.1119 7.00002 14.25 7.00002H18.9995ZM23 17.5C23 14.4624 20.5376 12 17.5 12C14.4624 12 12 14.4624 12 17.5C12 20.5376 14.4624 23 17.5 23C20.5376 23 23 20.5376 23 17.5ZM18.0006 18L18.0011 20.5035C18.0011 20.7797 17.7773 21.0035 17.5011 21.0035C17.225 21.0035 17.0011 20.7797 17.0011 20.5035L17.0006 18H14.4956C14.2197 18 13.9961 17.7762 13.9961 17.5C13.9961 17.2239 14.2197 17 14.4956 17H17.0005L17 14.4993C17 14.2231 17.2239 13.9993 17.5 13.9993C17.7761 13.9993 18 14.2231 18 14.4993L18.0005 17H20.4966C20.7725 17 20.9961 17.2239 20.9961 17.5C20.9961 17.7762 20.7725 18 20.4966 18H18.0006ZM12.5001 2L13.9985 2.00003Z" fill="#212121"/>
</svg>

<svg viewBox="0 0 24 24" fill="none" xmlns="http://www.w3.org/2000/svg" height="1em" width="1em">
  <path d="M5 4a2 2 0 0 1 2-2h5.5v4.75c0 .966.784 1.75 1.75 1.75H19v2.674A6.5 6.5 0 0 0 11.174 19H7a2 2 0 0 1-2-2V4Zm3 1.75c0 .414.336.75.75.75h1.5a.75.75 0 0 0 0-1.5h-1.5a.75.75 0 0 0-.75.75ZM8.75 8a.75.75 0 0 0 0 1.5h1.5a.75.75 0 0 0 0-1.5h-1.5ZM8 11.75c0 .414.336.75.75.75h1.5a.75.75 0 0 0 0-1.5h-1.5a.75.75 0 0 0-.75.75ZM12.81 22a6.518 6.518 0 0 1-1.078-1.5H6.5a3 3 0 0 1-3-3v-1.75a.75.75 0 0 0-1.5 0v1.75A4.5 4.5 0 0 0 6.5 22h6.31ZM19 7l-5-4.998V6.75c0 .138.112.25.25.25H19Zm4 10.5a5.5 5.5 0 1 0-11 0 5.5 5.5 0 0 0 11 0Zm-5 .5.001 2.503a.5.5 0 1 1-1 0V18h-2.505a.5.5 0 0 1 0-1H17v-2.5a.5.5 0 1 1 1 0V17h2.497a.5.5 0 0 1 0 1H18ZM12.5 2h1.498Z" fill="#212121"/>
</svg>
